X: 2860
T: Barham Down
R: three-two
M: 3/2
K: Dmajor
|:F|A2GF E2D2 A2d2|A2GF G2A2 E3B|A2GF E2D2 A2c2|d2ef gfec d3:|
|:f|a3f d2a2 f2d2|g3B e2B2 c3e|d2cB AGFE D2A2|B2cd edce d3:|

